src/components/NewsletterBanner/LetterSVG.svg

<svg fill="none" xmlns="http://www.w3.org/2000/svg" viewBox="0 0 250 226">
    <path d="m176.722 72.966 70.279-61.217" stroke="#FF5D22" stroke-width="3" />
    <path
        d="M245.511 10.623 144.657 36.1c-1.898.48-2.048 3.12-.216 3.81l24.632 9.29a2 2 0 0 1 1.275 1.592l3.014 21.376c.283 2.01 3.036 2.368 3.824.497l7.408-17.6a2 2 0 0 1 2.676-1.042l40.761 18.66a2 2 0 0 0 2.751-1.254l17.137-58.303c.437-1.485-.907-2.882-2.408-2.503Z"
        fill="#fff" />
    <path
        d="M245.511 10.623 144.657 36.1c-1.898.48-2.048 3.12-.216 3.81l24.632 9.29a2 2 0 0 1 1.275 1.592l3.014 21.376c.283 2.01 3.036 2.368 3.824.497l7.408-17.6a2 2 0 0 1 2.676-1.042l40.761 18.66a2 2 0 0 0 2.751-1.254l17.137-58.303c.437-1.485-.907-2.882-2.408-2.503Z"
        stroke="#FF5D22" stroke-width="3" />
    <path d="m170.183 49.618 77.454-38.462-62.712 43.48" stroke="#FF5D22" stroke-width="3" />
    <path
        d="M8.569 144.96a8.001 8.001 0 0 1 2.35-7.143L63.464 87.5a8 8 0 0 1 8.76-1.542l67.199 29.622a8 8 0 0 1 4.656 5.956l12.562 72.582a8 8 0 0 1-6.518 9.247L30.384 224.09a8 8 0 0 1-9.248-6.519L8.57 144.96Z"
        fill="#fff" />
    <path
        d="M8.569 144.96a8.001 8.001 0 0 1 2.35-7.143L63.464 87.5a8 8 0 0 1 8.76-1.542l67.199 29.622a8 8 0 0 1 4.656 5.956l12.562 72.582a8 8 0 0 1-6.518 9.247L30.384 224.09a8 8 0 0 1-9.248-6.519L8.57 144.96Z"
        stroke="#FF5D22" stroke-width="3" />
    <path d="M23.753 222.62 81.1 172.96a3.998 3.998 0 0 1 4.069-.704l70.702 27.497" stroke="#FF5D22" />
    <path
        d="M14.86 125.877a2 2 0 0 1 1.63-2.312l112.933-19.546a2 2 0 0 1 2.312 1.629l3.949 22.819a2 2 0 0 1-.715 1.898l-51.033 41.166a2 2 0 0 1-1.915.331l-61.9-21.619a2.002 2.002 0 0 1-1.311-1.548l-3.95-22.818Z"
        fill="#fff" />
    <path
        d="M14.86 125.877a2 2 0 0 1 1.63-2.312l112.933-19.546a2 2 0 0 1 2.312 1.629l3.949 22.819a2 2 0 0 1-.715 1.898l-51.033 41.166a2 2 0 0 1-1.915.331l-61.9-21.619a2.002 2.002 0 0 1-1.311-1.548l-3.95-22.818Z"
        stroke="#FF5D22" stroke-width="3" />
    <mask id="d" style="mask-type:alpha" maskUnits="userSpaceOnUse" x="14" y="103" width="122" height="69">
        <path
            d="M14.864 125.877a2 2 0 0 1 1.63-2.312l112.933-19.546a1.999 1.999 0 0 1 2.311 1.629l3.95 22.819a2 2 0 0 1-.715 1.898L83.94 171.531a2 2 0 0 1-1.915.331l-61.9-21.619a2.002 2.002 0 0 1-1.311-1.548l-3.95-22.818Z"
            fill="#F9F9FB" />
        <path
            d="M14.864 125.877a2 2 0 0 1 1.63-2.312l112.933-19.546a1.999 1.999 0 0 1 2.311 1.629l3.95 22.819a2 2 0 0 1-.715 1.898L83.94 171.531a2 2 0 0 1-1.915.331l-61.9-21.619a2.002 2.002 0 0 1-1.311-1.548l-3.95-22.818Z"
            fill="#000" fill-opacity=".2" />
    </mask>
    <g mask="url(#d)" stroke="#FF5D22" stroke-width=".928">
        <path
            d="M-22.614 628.948 434.434-19.427M-18.005 628.15 439.043-20.225M-13.4 627.353 443.65-21.021M-8.794 626.556 448.254-21.818M-4.185 625.758 452.864-22.616M.417 624.961 457.465-23.413M5.022 624.164 462.071-24.21M9.628 623.368 466.676-25.007M14.237 622.57 471.286-25.805M18.843 621.773 475.89-26.602M23.448 620.976 480.497-27.398M28.054 620.178 485.102-28.196M32.66 619.381 489.706-28.993M37.265 618.583 494.313-29.791M41.87 617.787 498.918-30.588M46.475 616.99 503.524-31.385M51.085 616.192 508.133-32.183M55.69 615.395 512.74-32.979M60.296 614.598 517.344-33.776M64.901 613.8 521.95-34.574M69.507 613.003 526.555-35.371M74.112 612.206 531.161-36.168M78.718 611.41 535.766-36.965M83.323 610.613 540.372-37.762M87.933 609.815 544.98-38.56M92.538 609.018 549.586-39.356M97.144 608.22 554.192-40.154M101.749 607.423 558.797-40.951M106.35 606.626 563.399-41.748M110.96 605.829 568.008-42.546M115.565 605.032 572.614-43.343M120.175 604.234 577.223-44.141M124.78 603.437 581.829-44.937M-27.216 629.745 429.832-18.63M-31.825 630.541 425.223-17.833M-36.427 631.339 420.622-17.035M-41.032 632.136 416.016-16.238M-45.642 632.934 411.407-15.44M-50.247 633.731 406.8-14.644M-54.853 634.528 402.196-13.847M-59.458 635.325 397.59-13.05M-64.064 636.122 392.985-12.253M-68.669 636.919 388.379-11.455M-73.275 637.716 383.774-10.658M-77.88 638.513 379.168-9.861M-82.49 639.311 374.56-9.063M-87.095 640.108 369.954-8.267M-91.7 640.905 365.348-7.47M-96.306 641.703 360.743-6.672M-100.911 642.499 356.137-5.875M-105.517 643.297 351.532-5.077M-110.122 644.094 346.926-4.28M-114.728 644.891 342.321-3.483M-119.337 645.689 337.711-2.685M-123.942 646.486 333.106-1.889M-128.548 647.283 328.5-1.092M-133.153 648.08 323.895-.295M-137.759 648.876 319.289.502M-142.364 649.674 314.684 1.3M-146.97 650.471 310.079 2.097M-151.575 651.268 305.473 2.894M-156.185 652.066 300.864 3.691M-160.79 652.863 296.258 4.488M-165.396 653.661 291.653 5.286M-170.001 654.457 287.047 6.083M-174.603 655.254 282.446 6.88M-179.212 656.052 277.836 7.678M-183.817 656.849 273.231 8.475M-188.423 657.646 268.625 9.272M-193.028 658.443 264.02 10.068M-197.638 659.241 259.411 10.866M-202.243 660.038 254.805 11.663M-206.845 660.834 250.204 12.46M-211.454 661.632 245.594 13.258M-216.06 662.429 240.989 14.055M-220.665 663.226 236.383 14.852M-225.271 664.024 231.778 15.649M-229.876 664.821 227.172 16.446M-234.485 665.619 222.563 17.244M-239.087 666.415 217.961 18.041M-243.692 667.212 213.356 18.838M-248.302 668.01 208.747 19.636M-252.907 668.807 204.141 20.433M-257.513 669.604 199.536 21.23M-262.118 670.401 194.93 22.027M-266.724 671.198 190.325 22.823M-271.329 671.996 185.719 23.621M-275.939 672.793 181.11 24.419M-280.544 673.59 176.504 25.216M-285.15 674.387 171.899 26.013M-289.755 675.184 167.293 26.81M-294.36 675.982 162.688 27.607M-298.97 676.779 158.079 28.404M-303.571 677.577 153.477 29.202M-308.177 678.373 148.872 29.999M-312.786 679.17 144.262 30.796M-317.392 679.968 139.657 31.594M-321.997 680.765 135.051 32.391M-326.603 681.562 130.446 33.188M-331.208 682.359 125.84 33.984M-335.814 683.157 121.235 34.782M-340.419 683.954 116.629 35.579M-345.025 684.75 112.024 36.376M-349.634 685.548 107.414 37.174M-354.239 686.345 102.809 37.971M-358.845 687.142 98.204 38.768M-363.45 687.94 93.598 39.565M-368.056 688.737 88.993 40.362M-372.661 689.535 84.387 41.16M-377.267 690.331 79.782 41.957M-381.872 691.128 75.176 42.754M-386.482 691.926 70.567 43.552M-391.083 692.722 65.965 44.348M-395.692 693.52 61.356 45.146M-400.298 694.317 56.75 45.942M-404.903 695.114 52.145 46.739M-409.509 695.912 47.539 47.537M-414.114 696.708 42.934 48.334M-418.72 697.505 38.329 49.131M-423.325 698.303 33.723 49.929M-427.935 699.1 29.114 50.726M-432.54 699.898 24.508 51.523M-437.146 700.695 19.903 52.32M-441.747 701.492 15.301 53.117M-446.357 702.289 10.692 53.915M-450.962 703.086 6.086 54.712M-455.567 703.883 1.481 55.509" />
    </g>
    <defs>
        <filter id="a" x="92.44" y="-40.15" width="206.273" height="164.749" filterUnits="userSpaceOnUse"
            color-interpolation-filters="sRGB">
            <feFlood flood-opacity="0" result="BackgroundImageFix" />
            <feGaussianBlur in="BackgroundImage" stdDeviation="24.604" />
            <feComposite in2="SourceAlpha" operator="in" result="effect1_backgroundBlur_4234_52207" />
            <feBlend in="SourceGraphic" in2="effect1_backgroundBlur_4234_52207" result="shape" />
        </filter>
        <filter id="b" x="-42.255" y="34.57" width="249.726" height="240.348" filterUnits="userSpaceOnUse"
            color-interpolation-filters="sRGB">
            <feFlood flood-opacity="0" result="BackgroundImageFix" />
            <feGaussianBlur in="BackgroundImage" stdDeviation="24.604" />
            <feComposite in2="SourceAlpha" operator="in" result="effect1_backgroundBlur_4234_52207" />
            <feBlend in="SourceGraphic" in2="effect1_backgroundBlur_4234_52207" result="shape" />
        </filter>
        <filter id="c" x="-35.877" y="53.281" width="222.3" height="169.402" filterUnits="userSpaceOnUse"
            color-interpolation-filters="sRGB">
            <feFlood flood-opacity="0" result="BackgroundImageFix" />
            <feGaussianBlur in="BackgroundImage" stdDeviation="24.604" />
            <feComposite in2="SourceAlpha" operator="in" result="effect1_backgroundBlur_4234_52207" />
            <feBlend in="SourceGraphic" in2="effect1_backgroundBlur_4234_52207" result="shape" />
        </filter>
    </defs>
</svg>

<svg fill="none" xmlns="http://www.w3.org/2000/svg" viewBox="0 0 250 226">
    <path d="M176.7 73 247 11.7" stroke="#FF5D22" stroke-width="3" />
    <path
        d="M245.5 10.6 144.7 36.1a2 2 0 0 0-.3 3.8l24.7 9.3a2 2 0 0 1 1.2 1.6l3 21.4c.3 2 3.1 2.3 3.9.5l7.4-17.6a2 2 0 0 1 2.7-1L228 72.6a2 2 0 0 0 2.8-1.3l17.1-58.3a2 2 0 0 0-2.4-2.5Z"
        fill="#fff" />
    <path
        d="M245.5 10.6 144.7 36.1a2 2 0 0 0-.3 3.8l24.7 9.3a2 2 0 0 1 1.2 1.6l3 21.4c.3 2 3.1 2.3 3.9.5l7.4-17.6a2 2 0 0 1 2.7-1L228 72.6a2 2 0 0 0 2.8-1.3l17.1-58.3a2 2 0 0 0-2.4-2.5Z"
        stroke="#FF5D22" stroke-width="3" />
    <path d="m170.2 49.6 77.4-38.4L185 54.6" stroke="#FF5D22" stroke-width="3" />
    <path
        d="M8.6 145a8 8 0 0 1 2.3-7.2l52.6-50.3a8 8 0 0 1 8.7-1.5l67.2 29.6a8 8 0 0 1 4.7 6l12.5 72.5a8 8 0 0 1-6.5 9.3L30.4 224a8 8 0 0 1-9.3-6.5L8.6 145Z"
        fill="#fff" />
    <path
        d="M8.6 145a8 8 0 0 1 2.3-7.2l52.6-50.3a8 8 0 0 1 8.7-1.5l67.2 29.6a8 8 0 0 1 4.7 6l12.5 72.5a8 8 0 0 1-6.5 9.3L30.4 224a8 8 0 0 1-9.3-6.5L8.6 145Z"
        stroke="#FF5D22" stroke-width="3" />
    <path d="M23.8 222.6 81 173a4 4 0 0 1 4-.7l70.8 27.5" stroke="#FF5D22" />
    <path
        d="M14.9 125.9a2 2 0 0 1 1.6-2.3l113-19.6a2 2 0 0 1 2.2 1.6l4 22.9a2 2 0 0 1-.7 1.9l-51 41.1a2 2 0 0 1-2 .4l-61.9-21.7a2 2 0 0 1-1.3-1.5l-4-22.8Z"
        fill="#fff" />
    <path
        d="M14.9 125.9a2 2 0 0 1 1.6-2.3l113-19.6a2 2 0 0 1 2.2 1.6l4 22.9a2 2 0 0 1-.7 1.9l-51 41.1a2 2 0 0 1-2 .4l-61.9-21.7a2 2 0 0 1-1.3-1.5l-4-22.8Z"
        stroke="#FF5D22" stroke-width="3" />
    <mask id="a" style="mask-type:alpha" maskUnits="userSpaceOnUse" x="14" y="103" width="122" height="69">
        <path
            d="M14.9 125.9a2 2 0 0 1 1.6-2.3l113-19.6a2 2 0 0 1 2.2 1.6l4 22.9a2 2 0 0 1-.7 1.9l-51 41.1a2 2 0 0 1-2 .4l-61.9-21.7a2 2 0 0 1-1.3-1.5l-4-22.8Z"
            fill="#F9F9FB" />
        <path
            d="M14.9 125.9a2 2 0 0 1 1.6-2.3l113-19.6a2 2 0 0 1 2.2 1.6l4 22.9a2 2 0 0 1-.7 1.9l-51 41.1a2 2 0 0 1-2 .4l-61.9-21.7a2 2 0 0 1-1.3-1.5l-4-22.8Z"
            fill="#000" fill-opacity=".2" />
    </mask>
    <g mask="url(#a)" stroke="#FF5D22" stroke-width=".9">
        <path
            d="m-22.6 629 457-648.4M-18 628 439-20.1M-13.4 627.4 443.6-21M-8.8 626.6l457-648.4M-4.1 625.8l457-648.4M.5 625l457-648.4M5 624.2 462-24.2M9.7 623.4 466.6-25M14.3 622.6l457-648.4M18.9 621.8l457-648.4M23.5 621 480.5-27.4M28.1 620.2 485-28.2M32.7 619.4 489.7-29M37.3 618.6l457-648.4M42 617.8l457-648.4M46.5 617l457-648.4M51.1 616.2 508-32.2M55.7 615.4 512.7-33M60.3 614.6l457-648.4M65 613.8l457-648.4M69.6 613l457-648.4M74.2 612.2l457-648.4M78.8 611.4 535.7-37M83.4 610.6l457-648.4M88 609.8 545-38.6M92.6 609l457-648.4M97.2 608.2l457-648.4M101.8 607.4 558.8-41M106.4 606.6l457-648.3M111 605.8 568-42.5M115.6 605l457-648.3M120.2 604.2 577.2-44M124.8 603.4l457-648.3m-609 674.6 457-648.3M-31.8 630.5l457-648.3M-36.4 631.3 420.6-17M-41 632 416-16.2M-45.6 632.9l457-648.3M-50.2 633.7l457-648.3M-54.9 634.5 402.2-13.8M-59.5 635.3 397.5-13M-64 636 393-12.3M-68.6 637l457-648.4M-73.2 637.7l457-648.4M-77.8 638.5l457-648.4M-82.4 639.3 374.5-9M-87 640.1 370-8.3M-91.6 641l457-648.4M-96.3 641.7l457-648.4m-461.6 649.2L356-5.9m-461.6 649.2 457-648.4M-110 644.1l457-648.4M-114.7 645l457-648.4m-461.6 649.2 457-648.4m-461.6 649.2L333-2m-461.6 649.2 457-648.4m-461.7 649.2L323.8-.3M-137.7 649 319.2.5m-461.6 649.2 457-648.4M-147 650.5 310 2m-461.6 649.2 457-648.4M-156.1 652l457-648.4m-461.6 649.2 457-648.4m-461.6 649.2 457-648.4M-170 654.5 287 6m-461.6 649.2 457-648.4M-179.2 656l457-648.4m-461.6 649.1 457-648.3m-461.6 649.1 457-648.3M-193 658.4 264 10.1m-461.6 649.1L259.4 11M-202.2 660l457-648.3m-461.6 649.1 457-648.3m-461.7 649.1 457-648.3M-216 662.4 241 14.1m-461.6 649.1L236.3 15M-225.2 664l457-648.4m-461.6 649.2 457-648.4m-461.6 649.2 457-648.4M-239 666.4 218 18m-461.6 649.2 457-648.4M-248.2 668l457-648.4m-461.6 649.2L204 20.4m-461.6 649.2 457-648.4M-262 670.4 194.9 22m-461.6 649.2 457-648.4M-271.3 672l457-648.4m-461.6 649.2L181 24.4m-461.6 649.2 457-648.4m-461.6 649.2L171.9 26m-461.7 649.2 457-648.4M-294.3 676l457-648.4M-299 676.8 158 28.4m-461.6 649.2 457-648.4m-461.6 649.2L148.8 30m-461.6 649.2 457-648.4M-317.3 680l457-648.4M-322 680.8 135 32.4m-461.6 649.2 457-648.4m-461.6 649.2L125.8 34m-461.6 649.2 457-648.4M-340.4 684l457-648.4M-345 684.7 112 36.5m-461.6 649.1 457-648.3m-461.6 649.1L102.8 38M-358.8 687l457-648.3m-461.6 649.1 457-648.3m-461.7 649.1L89 40.4m-461.6 649.1 457-648.3m-461.6 649.1L79.7 42M-381.8 691l457-648.3m-461.6 649.1 457-648.3M-391 692.7 66 44.3m-461.6 649.2 457-648.4m-461.6 649.2L56.7 46m-461.6 649.2 457-648.4M-409.5 696l457-648.4M-414 696.7l457-648.4m-461.6 649.2 457-648.4m-461.6 649.2 457-648.4m-461.6 649.2L29 50.7M-432.5 700l457-648.4M-437 700.7l457-648.4m-461.6 649.2L15.3 53m-461.7 649.2 457-648.4M-451 703.1 6 54.7M-455.5 704 1.4 55.5" />
    </g>
</svg>
